img/ratings.svg

<svg fill="none" height="16" viewBox="0 0 16 16" width="16" xmlns="http://www.w3.org/2000/svg"><g fill="#1c8aa9"><path d="m1.50003 6.5h2.99995c.27613 0 .50003.27613.50003.50003v7.49997c0 .2761-.22381.5-.50003.5h-2.99995c-.27613 0-.50003-.2761-.50003-.5v-7.49997c0-.27613.2238-.50003.50003-.50003z"/><path d="m6.50003 1h2.99995c.27613 0 .50002.27613.50002.50003v12.99987c0 .2761-.2238.5-.50002.5h-2.99995c-.27613 0-.50003-.2761-.50003-.5v-12.99987c0-.27613.2238-.50003.50003-.50003z"/><path d="m11.5 4.99994h3c.2761 0 .5.27613.5.50003v8.99993c0 .2762-.2238.5001-.5.5001h-3c-.2761 0-.5-.2762-.5-.5001v-8.99993c0-.27613.2238-.50003.5-.50003z"/></g></svg>

<svg width="16" height="16" viewBox="0 0 16 16" fill="none" xmlns="http://www.w3.org/2000/svg">
<path d="M1.50003 6.5H4.49998C4.77611 6.5 5.00001 6.77613 5.00001 7.00003V14.5C5.00001 14.7761 4.7762 15 4.49998 15H1.50003C1.2239 15 1 14.7239 1 14.5V7.00003C1 6.7239 1.2238 6.5 1.50003 6.5Z" fill="#1C8AA9"/>
<path d="M6.50003 1H9.49998C9.77611 1 10 1.27613 10 1.50003V14.4999C10 14.776 9.7762 14.9999 9.49998 14.9999H6.50003C6.2239 14.9999 6 14.7238 6 14.4999V1.50003C6 1.2239 6.2238 1 6.50003 1Z" fill="#1C8AA9"/>
<path d="M11.5 4.99994H14.5C14.7761 4.99994 15 5.27607 15 5.49997V14.4999C15 14.7761 14.7762 15 14.5 15H11.5C11.2239 15 11 14.7238 11 14.4999V5.49997C11 5.22384 11.2238 4.99994 11.5 4.99994Z" fill="#1C8AA9"/>
</svg>
